packages/astro-components-stencil/src/icons/border-outer.svg

<svg xmlns="http://www.w3.org/2000/svg" viewBox="0 0 24 24"><g xmlns="http://www.w3.org/2000/svg" id="border-outer" fill-rule="nonzero">
            <path d="M13 7h-2v2h2V7zm0 4h-2v2h2v-2zm4 0h-2v2h2v-2zM3 5v14c0 1.1.9 2 2 2h14c1.1 0 2-.9 2-2V5c0-1.1-.9-2-2-2H5c-1.1 0-2 .9-2 2zm15 14H6c-.55 0-1-.45-1-1V6c0-.55.45-1 1-1h12c.55 0 1 .45 1 1v12c0 .55-.45 1-1 1zm-5-4h-2v2h2v-2zm-4-4H7v2h2v-2z"/>
        </g></svg>

<svg width="24" height="24" viewBox="0 0 24 24" fill="none" xmlns="http://www.w3.org/2000/svg">
<path fill-rule="evenodd" clip-rule="evenodd" d="M3 5V19C3 20.1 3.9 21 5 21H19C20.1 21 21 20.1 21 19V5C21 3.9 20.1 3 19 3H5C3.9 3 3 3.9 3 5ZM13 7H11V9H13V7ZM13 11H11V13H13V11ZM15 11H17V13H15V11ZM6 19H18C18.55 19 19 18.55 19 18V6C19 5.45 18.55 5 18 5H6C5.45 5 5 5.45 5 6V18C5 18.55 5.45 19 6 19ZM13 15H11V17H13V15ZM7 11H9V13H7V11Z" fill="black"/>
</svg>
